X:1
T:Title
%%score [ ( 1 2 ) ( 3 4 ) ]
L:1/8
Q:1/4=120
M:4/4
K:G
V:1 treble nm=" " snm=" "
V:2 treble 
V:3 bass nm="Midi_74"
V:4 bass 
V:1
"^Edward Caswall" G3 A G2 F2 | E3 D D4 | G2 A2 c2 B2 | B3"^John Goss" A A4 | G3 A G2 F2 | E3 D D4 | %6
w: See, a- mid the|win- ter's snow,|born for us on|earth be- low,|see, the ten- der|Lamb ap- pears,|
w: ||||||
w: "Say, ye ho- ly|shep- herds, say,|what your joy- ful|news to- day;|where- fore have ye|left your sheep|
w: ||||||
w: Sa- cred in- fant,|all di- vine,|what a ten- der|love was thine,|thus to come from|high- est bliss|
 G2 A2 B2 c2 | A3 G G4 || d3 d c2 B2 | A2 G2 F4 | d3 d c2 B2 | A2 G2 F4 | G3 A G2 F2 | E3 D D4 | %14
w: pro- mised from e-|ter- nal years.|Hail, thou e- ver-|bless- èd morn!|Hail, re- demp- tion's|hap- py dawn!|Sing through all Je-|ru- sa- lem:|
w: ||||||||
w: on the lone- ly|moun- tain steep?"|||||||
w: ||||||||
w: down to such as|world as this!|||||||
 d3 B G2 c2 | B2 A2 G4 |] %16
w: Christ is born in|Beth- le- hem!|
w: ||
w: ||
w: ||
w: ||
V:2
 B,2 C2 D2 D2 | C2"^See, amid the winter's snow" C2 B,4 | B,2 C2 G2 G2 | E2 E2 D4 | D2 B,2 C2 D2 | %5
w: |||||
w: Lo! with- in a|man- ger lies|he who built the|star- ry skies;|he who, throned in|
w: |||||
w: "As we watched at|dead of night,|lo, we saw a|won- drous light;|an- gels sing- ing|
w: |||||
w: ~~Teach, o teach us,|ho- ly child,|by thy face so|meek and mild,|teach us to re-|
 G,2 A,2 (B,2 A,2) | B,2 C2 D2 E2 | C2 C2 B,4 || G3 G G2 G2 | D2 D2 D4 | D3 G G2 G2 | E2 D2 D4 | %12
w: |||||||
w: light sub- lime, *|sits a- mid the|Cher- u- bim!|||||
w: |||||||
w: peace on earth *|told us of a|Sa- viour's birth."|||||
w: |||||||
w: sem- ble thee *|in thy sweet hu-|mi- li- ty.|||||
 B,3 B, ^C2 D2 | D2 ^C2 D4 | D3 D E2 G2 | F2 F2 G4 |] %16
w: ||||
w: ||||
w: ||||
w: ||||
w: ||||
w: ||||
V:3
 G,2 G,2 G,2 D,2 | E,2 F,2 (G,2 A,2) | B,2 C2 E2 D2 | D2 ^C2 D4 | G,2 G,2 G,2 D,2 | %5
 E,2 F,2 (G,2 F,2) | G,2 G,2 G,2 G,2 | G,2 F,2 G,4 || B,3 B, E2 D2 | C2 B,2 A,4 | G,3 G, E2 D2 | %11
 C2 B,2 A,4 |"^This edition  Andrew Sims 2014" G,3 G, E,2 D,2 | B,2 (A,G,) F,4 | G,3 G, G,2 E2 | %15
 D2 C2 B,4 |] %16
V:4
 G,,2 G,,2 A,,2 B,,2 | C,2 C,2 G,,4 | G,2 F,2 E,2 G,2 | D,2 D,2 (D,2 C,2) | B,,2 G,,2 A,,2 B,,2 | %5
 C,2 C,2 C,4 | E,2 E,2 D,2 C,2 | D,2 D,2 G,,4 || G,3 G, G,2 G,2 | F,2 G,2 D,4 | B,,3 B,, C,2 G,,2 | %11
 A,,2 B,,C, D,4 | E,3 E, A,,2 B,,2 | G,,2 A,,2 (D,2 !courtesy!=C,2) | B,,3 B,, C,2 A,,2 | %15
 D,2 D,2 G,,4 |] %16

